icons/icn_copy.svg

<svg width="24" xmlns="http://www.w3.org/2000/svg" height="24" id="screenshot-abd3526a-132c-8078-8006-99cb0aefe246" viewBox="0 0 24 24" xmlns:xlink="http://www.w3.org/1999/xlink" fill="none" version="1.1"><g id="shape-abd3526a-132c-8078-8006-99cb0aefe246"><g class="frame-container-wrapper"><g class="frame-container-blur"><g class="frame-container-shadows"><g fill="none"><g class="fills" id="fills-abd3526a-132c-8078-8006-99cb0aefe246"><rect rx="0" ry="0" x="0" y="0" width="24" height="24.000000000000455" transform="matrix(1, 0, 0, 1, 0, 0)" class="frame-background"/></g><g class="frame-children"><g id="shape-abd3526a-132c-8078-8006-99cadbc51ef6" width="24" height="24" version="1.1" rx="0" ry="0" style="fill: rgb(0, 0, 0);"><g id="shape-abd3526a-132c-8078-8006-99cadbcc8bbb" style="opacity: 1;"><g class="fills" id="fills-abd3526a-132c-8078-8006-99cadbcc8bbb"><path d="M5.772753715515137,8.0343017578125C4.276904106140137,8.0343017578125,3.049121141433716,9.261962890625,3.049121141433716,10.7581787109375L3.049121141433716,19.247314453125C3.049121141433716,20.7435302734375,4.276904106140137,21.9638671875,5.772753715515137,21.9638671875L14.268847465515137,21.9638671875C15.765429496765137,21.9638671875,16.992725372314453,20.7435302734375,16.992725372314453,19.247314453125L16.992725372314453,10.7581787109375C16.992725372314453,9.261962890625,15.765429496765137,8.0343017578125,14.268847465515137,8.0343017578125ZM5.772753715515137,9.429443359375L14.268847465515137,9.429443359375C15.016161918640137,9.429443359375,15.597460746765137,10.0107421875,15.597460746765137,10.7581787109375L15.597460746765137,19.247314453125C15.597460746765137,19.9952392578125,15.016161918640137,20.5687255859375,14.268847465515137,20.5687255859375L5.772753715515137,20.5687255859375C5.025439262390137,20.5687255859375,4.443896293640137,19.9952392578125,4.443896293640137,19.247314453125L4.443896293640137,10.7581787109375C4.443896293640137,10.0107421875,5.025439262390137,9.429443359375,5.772753715515137,9.429443359375Z" style="display: inline; stroke-linecap: round; stroke-linejoin: round; fill: rgb(0, 0, 0); fill-opacity: 1;"/></g></g><g id="shape-abd3526a-132c-8078-8006-99cadbccfc3d" style="opacity: 1;"><g class="fills" id="fills-abd3526a-132c-8078-8006-99cadbccfc3d"><path d="M9.603808403015137,2.0032958984375C8.186572074890137,1.997314453125,7.020312309265137,3.1529541015625,7.020312309265137,4.5648193359375L7.020312309265137,5.2882080078125L7.020312309265137,5.996826171875L8.452441215515137,5.996826171875L8.452441215515137,5.2882080078125L8.452441215515137,4.5648193359375C8.452441215515137,3.9234619140625,8.947558403015137,3.4251708984375,9.596240043640137,3.427978515625L19.443164825439453,3.4722900390625C20.099414825439453,3.4754638671875,20.594776153564453,3.9677734375,20.594776153564453,4.6090087890625L20.594776153564453,13.430419921875C20.594776153564453,14.07177734375,20.093799591064453,14.58154296875,19.450733184814453,14.5745849609375L19.036426544189453,14.5750732421875L19.021533966064453,15.999755859375L19.435840606689453,15.999267578125C20.857715606689453,16.013671875,22.019336700439453,14.8426513671875,22.019336700439453,13.430419921875L22.019336700439453,4.6090087890625C22.019336700439453,3.197265625,20.853321075439453,2.046630859375,19.443164825439453,2.0401611328125Z" style="display: inline; stroke-linecap: square; stroke-linejoin: round; fill: rgb(0, 0, 0); fill-opacity: 1;"/></g></g><g id="shape-abd3526a-132c-8078-8006-99cadbcd59f6" style="opacity: 1;"><g class="fills" id="fills-abd3526a-132c-8078-8006-99cadbcd59f6"><path d="M7.020312309265137,11.267578125C6.616991996765137,11.2689208984375,6.291308403015137,11.5955810546875,6.289355278015137,11.998291015625C6.288622856140137,12.1934814453125,6.364306449890137,12.380859375,6.501757621765137,12.5191650390625C6.639208793640137,12.6575927734375,6.825488090515137,12.736083984375,7.020312309265137,12.736572265625L12.800097465515137,12.736572265625C12.994433403015137,12.736083984375,13.181933403015137,12.6575927734375,13.318408012390137,12.5191650390625C13.455859184265137,12.380859375,13.532519340515137,12.1934814453125,13.530566215515137,11.998291015625C13.529589653015137,11.5955810546875,13.202929496765137,11.2689208984375,12.800097465515137,11.267578125Z" style="display: inline; stroke-linecap: round; stroke-linejoin: round; fill: rgb(0, 0, 0); fill-opacity: 1;"/></g></g><g id="shape-abd3526a-132c-8078-8006-99cadbcd8444" style="opacity: 1;"><g class="fills" id="fills-abd3526a-132c-8078-8006-99cadbcd8444"><path d="M7.020312309265137,14.2645263671875C6.825488090515137,14.2655029296875,6.639208793640137,14.343505859375,6.501757621765137,14.4822998046875C6.364306449890137,14.6207275390625,6.288622856140137,14.80810546875,6.289355278015137,15.0028076171875C6.291308403015137,15.406005859375,6.616991996765137,15.732177734375,7.020312309265137,15.7335205078125L12.800097465515137,15.7335205078125C13.202929496765137,15.732177734375,13.529589653015137,15.406005859375,13.530566215515137,15.0028076171875C13.532519340515137,14.80810546875,13.455859184265137,14.6207275390625,13.318408012390137,14.4822998046875C13.181933403015137,14.343505859375,12.994433403015137,14.2655029296875,12.800097465515137,14.2645263671875Z" style="display: inline; stroke-linecap: round; stroke-linejoin: round; fill: rgb(0, 0, 0); fill-opacity: 1;"/></g></g><g id="shape-abd3526a-132c-8078-8006-99cadbce1bf5" style="opacity: 1;"><g class="fills" id="fills-abd3526a-132c-8078-8006-99cadbce1bf5"><path d="M7.020312309265137,17.26904296875C6.616991996765137,17.2703857421875,6.291308403015137,17.5970458984375,6.289355278015137,17.999755859375C6.291308403015137,18.403076171875,6.616991996765137,18.729248046875,7.020312309265137,18.7305908203125L12.800097465515137,18.7305908203125C13.202929496765137,18.729248046875,13.529589653015137,18.403076171875,13.530566215515137,17.999755859375C13.529589653015137,17.5970458984375,13.202929496765137,17.2703857421875,12.800097465515137,17.26904296875Z" style="display: inline; stroke-linecap: round; stroke-linejoin: round; fill: rgb(0, 0, 0); fill-opacity: 1;"/></g></g></g></g></g></g></g></g></g></svg>

<svg fill="none" viewBox="0 0 24 24"><g class="frame-container-wrapper"><g class="frame-container-blur"><g class="frame-container-shadows"><g class="fills"><rect width="24" height="24" class="frame-background" rx="0" ry="0"/></g><g fill="#000" class="frame-children"><path d="M5.7728 8.0343c-1.4959 0-2.7237 1.2277-2.7237 2.7239v8.4891c0 1.4962 1.2278 2.7166 2.7237 2.7166h8.496c1.4966 0 2.724-1.2204 2.724-2.7166v-8.4891c0-1.4962-1.2274-2.7239-2.724-2.7239Zm0 1.3951h8.496c.7474 0 1.3287.5813 1.3287 1.3288v8.4891c0 .748-.5813 1.3214-1.3287 1.3214h-8.496c-.7474 0-1.3289-.5735-1.3289-1.3214v-8.4891c0-.7475.5815-1.3288 1.3289-1.3288Z" class="fills"/><path d="M9.6038 2.0033c-1.4172-.006-2.5835 1.1497-2.5835 2.5615v1.432h1.4321v-1.432c0-.6413.4952-1.1396 1.1438-1.1368l9.847.0443c.6562.0032 1.1516.4955 1.1516 1.1367v8.8214c0 .6414-.501 1.1511-1.144 1.1442l-.4144.0005-.0149 1.4247.4143-.0005c1.422.0144 2.5835-1.1566 2.5835-2.5689V4.609c0-1.4117-1.166-2.5624-2.5761-2.5688ZM7.0203 11.2676c-.4033.0013-.729.328-.731.7307a.7339.7339 0 0 0 .731.7383h5.7798a.732.732 0 0 0 .5183-.2174.7285.7285 0 0 0 .2122-.521.733.733 0 0 0-.7305-.7306ZM7.0203 14.2645a.7343.7343 0 0 0-.731.7383.7334.7334 0 0 0 .731.7307h5.7798a.7327.7327 0 0 0 .7305-.7307.7287.7287 0 0 0-.2122-.5205.7329.7329 0 0 0-.5183-.2178ZM7.0203 17.269c-.4033.0014-.729.328-.731.7308a.7335.7335 0 0 0 .731.7308h5.7798a.7327.7327 0 0 0 .7305-.7308.733.733 0 0 0-.7305-.7308Z" class="fills"/></g></g></g></g></svg>
